X:252
T:The Chattering Magpie
M:4/4
L:1/8
R:reel
N:Learned from Kira Ott
N:Set is Kira's reel (#267) - ~ - The Chattering Magpie
Z:Michael Abraham Shulman
K:G
dc|:BGAF D~G3|(3B^cd ge fd=cA|BGAF DGGD|1 (3EFG AB c2dc:|2 (3EFG AB c2Bc|
|:dggf g2bg|d~g3 fgaf|dggf ~g3a|bgag fdcA:|
